X: 152
T: Jackson's fancy
C: anon.
O: Ireland
B: Francis O'Neill: "The Dance Music of Ireland" (1907) no. 152
R: Double jig
Z: Transcribed by Frank Nordberg - http://www.musicaviva.com
F: http://www.musicaviva.com/abc/tunes/ireland/oneill-1001/oneill-1001-015
2.abc
M: 6/8
L: 1/8
K: D
DFG def|edc dAF|DFA dAF|FEE EFE|DFA def|edc dAF|DFA deg|fdd d3:|
|:fed (fa).f|(gb).g (fa).g|fed (fa).f|(ge).e eag|fed (fa).f|(gb).g (fa).g
|fed Aag|fdd d3:|
W:
W:
W: From Musica Viva - http://www.musicaviva.com
W: the Internet center for free sheet music downloads.


